; generated by Slic3r 1.3.0-dev on 2022-10-31 at 17:07:48

; external perimeters extrusion width = 0.44mm (3.38mm^3/s)
; perimeters extrusion width = 0.48mm (7.54mm^3/s)
; infill extrusion width = 0.48mm (10.05mm^3/s)
; solid infill extrusion width = 0.48mm (2.51mm^3/s)
; top infill extrusion width = 0.48mm (1.88mm^3/s)

M107
M104 S200 ; set temperature
G28 ; home all axes
G1 Z5 F5000 ; lift nozzle

; Filament gcode

M109 S200 ; set temperature and wait for it to be reached
G21 ; set units to millimeters
G90 ; use absolute coordinates
M82 ; use absolute distances for extrusion
G92 E0
G1 Z0.350 F7800.000
G1 E-2.00000 F1260.00000
G92 E0
G1 X82.762 Y70.753 Z0.350 F7800.000
G1 E2.00000 F1260.00000
G1 F1800
G1 X84.515 Y69.274 Z0.350 E2.20854 B-0.000
G1 X86.667 Y68.481 Z0.350 E2.41708 B-0.000
G1 X87.847 Y68.375 Z0.350 E2.52479 B-0.000
G1 X128.166 Y68.375 Z0.350 E6.19099 B-0.000
G1 X130.425 Y68.772 Z0.350 E6.39954 B-0.000
G1 X132.413 Y69.915 Z0.350 E6.60808 B-0.000
G1 X133.892 Y71.668 Z0.350 E6.81662 B-0.000
G1 X134.685 Y73.820 Z0.350 E7.02516 B-0.000
G1 X134.791 Y75.000 Z0.350 E7.13287 B-0.000
G1 X134.791 Y125.000 Z0.350 E11.67935 B-0.000
G1 X134.394 Y127.259 Z0.350 E11.88789 B-0.000
G1 X133.250 Y129.247 Z0.350 E12.09644 B-0.000
G1 X131.498 Y130.726 Z0.350 E12.30498 B-0.000
G1 X129.346 Y131.519 Z0.350 E12.51352 B-0.000
G1 X128.166 Y131.625 Z0.350 E12.62123 B-0.000
G1 X87.847 Y131.625 Z0.350 E16.28743 B-0.000
G1 X85.588 Y131.228 Z0.350 E16.49597 B-0.000
G1 X83.600 Y130.085 Z0.350 E16.70451 B-0.000
G1 X82.121 Y128.332 Z0.350 E16.91306 B-0.000
G1 X81.328 Y126.180 Z0.350 E17.12160 B-0.000
G1 X81.222 Y125.000 Z0.350 E17.22931 B-0.000
G1 X81.222 Y75.000 Z0.350 E21.77579 B-0.000
G1 X81.619 Y72.741 Z0.350 E21.98433 B-0.000
G1 X82.732 Y70.805 Z0.350 E22.18742 B-0.000
G1 E20.18742 F1260.00000
G92 E0
G1 X126.566 Y123.400 Z0.350 F7800.000
G1 E2.00000 F1260.00000
G1 F1800
G1 X89.446 Y123.400 Z0.350 E5.37527 B-0.000
G1 X89.446 Y76.600 Z0.350 E9.63081 B-0.000
G1 X126.566 Y76.600 Z0.350 E13.00608 B-0.000
G1 X126.566 Y123.340 Z0.350 E17.25617 B-0.000
G1 X127.191 Y124.025 Z0.350 F7800.000
G1 F1800
G1 X88.822 Y124.025 Z0.350 E20.74508 B-0.000
G1 X88.822 Y75.975 Z0.350 E25.11427 B-0.000
G1 X127.191 Y75.975 Z0.350 E28.60318 B-0.000
G1 X127.191 Y123.965 Z0.350 E32.96691 B-0.000
G1 X127.816 Y124.650 Z0.350 F7800.000
G1 F1800
G1 X88.197 Y124.650 Z0.350 E36.56947 B-0.000
G1 X88.197 Y75.350 Z0.350 E41.05230 B-0.000
G1 X127.816 Y75.350 Z0.350 E44.65485 B-0.000
G1 X127.816 Y124.590 Z0.350 E49.13222 B-0.000
G1 X127.433 Y124.533 F7800.000
G1 E47.13222 F1260.00000
G92 E0
G1 X125.698 Y123.018 Z0.350 F7800.000
G1 E2.00000 F1260.00000
G1 F1800
G1 X126.184 Y122.532 Z0.350 E2.06261 B-0.000
G1 X126.184 Y121.647 Z0.350 E2.14320 B-0.000
G1 X124.813 Y123.018 Z0.350 E2.31978 B-0.000
G1 X123.928 Y123.018 Z0.350 E2.40037 B-0.000
G1 X126.184 Y120.762 Z0.350 E2.69092 B-0.000
G1 X126.184 Y119.877 Z0.350 E2.77151 B-0.000
G1 X123.043 Y123.018 Z0.350 E3.17603 B-0.000
G1 X122.158 Y123.018 Z0.350 E3.25662 B-0.000
G1 X126.184 Y118.992 Z0.350 E3.77511 B-0.000
G1 X126.184 Y118.107 Z0.350 E3.85570 B-0.000
G1 X121.273 Y123.018 Z0.350 E4.48816 B-0.000
G1 X120.388 Y123.018 Z0.350 E4.56875 B-0.000
G1 X126.184 Y117.222 Z0.350 E5.31518 B-0.000
G1 X126.184 Y116.337 Z0.350 E5.39577 B-0.000
G1 X119.503 Y123.018 Z0.350 E6.25617 B-0.000
G1 X118.618 Y123.018 Z0.350 E6.33676 B-0.000
G1 X126.184 Y115.452 Z0.350 E7.31114 B-0.000
G1 X126.184 Y114.567 Z0.350 E7.39172 B-0.000
G1 X117.733 Y123.018 Z0.350 E8.48007 B-0.000
G1 X116.848 Y123.018 Z0.350 E8.56065 B-0.000
G1 X126.184 Y113.682 Z0.350 E9.76297 B-0.000
G1 X126.184 Y112.797 Z0.350 E9.84356 B-0.000
G1 X115.963 Y123.018 Z0.350 E11.15984 B-0.000
G1 X115.078 Y123.018 Z0.350 E11.24043 B-0.000
G1 X126.184 Y111.912 Z0.350 E12.67068 B-0.000
G1 X126.184 Y111.027 Z0.350 E12.75127 B-0.000
G1 X114.193 Y123.018 Z0.350 E14.29549 B-0.000
G1 X113.308 Y123.018 Z0.350 E14.37608 B-0.000
G1 X126.184 Y110.142 Z0.350 E16.03427 B-0.000
G1 X126.184 Y109.257 Z0.350 E16.11486 B-0.000
G1 X112.423 Y123.018 Z0.350 E17.88702 B-0.000
G1 X111.538 Y123.018 Z0.350 E17.96761 B-0.000
G1 X126.184 Y108.372 Z0.350 E19.85374 B-0.000
G1 X126.184 Y107.487 Z0.350 E19.93433 B-0.000
G1 X110.653 Y123.018 Z0.350 E21.93443 B-0.000
G1 X109.768 Y123.018 Z0.350 E22.01502 B-0.000
G1 X126.184 Y106.602 Z0.350 E24.12909 B-0.000
G1 X126.184 Y105.717 Z0.350 E24.20968 B-0.000
G1 X108.883 Y123.018 Z0.350 E26.43772 B-0.000
G1 X107.998 Y123.018 Z0.350 E26.51831 B-0.000
G1 X126.184 Y104.832 Z0.350 E28.86032 B-0.000
G1 X126.184 Y103.947 Z0.350 E28.94091 B-0.000
G1 X107.113 Y123.018 Z0.350 E31.39690 B-0.000
G1 X106.228 Y123.018 Z0.350 E31.47748 B-0.000
G1 X126.184 Y103.062 Z0.350 E34.04744 B-0.000
G1 X126.184 Y102.177 Z0.350 E34.12802 B-0.000
G1 X105.343 Y123.018 Z0.350 E36.81195 B-0.000
G1 X104.458 Y123.018 Z0.350 E36.89254 B-0.000
G1 X126.184 Y101.292 Z0.350 E39.69043 B-0.000
G1 X126.184 Y100.407 Z0.350 E39.77102 B-0.000
G1 X103.573 Y123.018 Z0.350 E42.68288 B-0.000
G1 X102.688 Y123.018 Z0.350 E42.76347 B-0.000
G1 X126.184 Y99.522 Z0.350 E45.78930 B-0.000
G1 X126.184 Y98.637 Z0.350 E45.86989 B-0.000
G1 X101.803 Y123.018 Z0.350 E49.00969 B-0.000
G1 X100.918 Y123.018 Z0.350 E49.09028 B-0.000
G1 X126.184 Y97.752 Z0.350 E52.34405 B-0.000
G1 X126.184 Y96.867 Z0.350 E52.42464 B-0.000
G1 X100.033 Y123.018 Z0.350 E55.79238 B-0.000
G1 X99.148 Y123.018 Z0.350 E55.87297 B-0.000
G1 X126.184 Y95.982 Z0.350 E59.35469 B-0.000
G1 X126.184 Y95.097 Z0.350 E59.43527 B-0.000
G1 X98.263 Y123.018 Z0.350 E63.03096 B-0.000
G1 X97.378 Y123.018 Z0.350 E63.11155 B-0.000
G1 X126.184 Y94.212 Z0.350 E66.82120 B-0.000
G1 X126.184 Y93.327 Z0.350 E66.90179 B-0.000
G1 X96.493 Y123.018 Z0.350 E70.72541 B-0.000
G1 X95.608 Y123.018 Z0.350 E70.80600 B-0.000
G1 X126.184 Y92.442 Z0.350 E74.74359 B-0.000
G1 X126.184 Y91.557 Z0.350 E74.82418 B-0.000
G1 X94.723 Y123.018 Z0.350 E78.87574 B-0.000
G1 X93.838 Y123.018 Z0.350 E78.95633 B-0.000
G1 X126.184 Y90.672 Z0.350 E83.12186 B-0.000
G1 X126.184 Y89.787 Z0.350 E83.20245 B-0.000
G1 X92.953 Y123.018 Z0.350 E87.48195 B-0.000
G1 X92.068 Y123.018 Z0.350 E87.56254 B-0.000
G1 X126.184 Y88.902 Z0.350 E91.95602 B-0.000
G1 X126.184 Y88.017 Z0.350 E92.03661 B-0.000
G1 X91.183 Y123.018 Z0.350 E96.54405 B-0.000
G1 X90.298 Y123.018 Z0.350 E96.62464 B-0.000
G1 X126.184 Y87.132 Z0.350 E101.24605 B-0.000
G1 X126.184 Y86.247 Z0.350 E101.32664 B-0.000
G1 X89.828 Y122.603 Z0.350 E106.00853 B-0.000
G1 X89.828 Y121.718 Z0.350 E106.08912 B-0.000
G1 X126.184 Y85.362 Z0.350 E110.77101 B-0.000
G1 X126.184 Y84.477 Z0.350 E110.85159 B-0.000
G1 X89.828 Y120.833 Z0.350 E115.53348 B-0.000
G1 X89.828 Y119.948 Z0.350 E115.61407 B-0.000
G1 X126.184 Y83.592 Z0.350 E120.29596 B-0.000
G1 X126.184 Y82.707 Z0.350 E120.37655 B-0.000
G1 X89.828 Y119.063 Z0.350 E125.05844 B-0.000
G1 X89.828 Y118.178 Z0.350 E125.13903 B-0.000
G1 X126.184 Y81.822 Z0.350 E129.82092 B-0.000
G1 X126.184 Y80.937 Z0.350 E129.90151 B-0.000
G1 X89.828 Y117.293 Z0.350 E134.58340 B-0.000
G1 X89.828 Y116.408 Z0.350 E134.66398 B-0.000
G1 X126.184 Y80.052 Z0.350 E139.34587 B-0.000
G1 X126.184 Y79.167 Z0.350 E139.42646 B-0.000
G1 X89.828 Y115.523 Z0.350 E144.10835 B-0.000
G1 X89.828 Y114.638 Z0.350 E144.18894 B-0.000
G1 X126.184 Y78.282 Z0.350 E148.87083 B-0.000
G1 X126.184 Y77.397 Z0.350 E148.95142 B-0.000
G1 X89.828 Y113.753 Z0.350 E153.63331 B-0.000
G1 X89.828 Y112.868 Z0.350 E153.71390 B-0.000
G1 X125.715 Y76.982 Z0.350 E158.33532 B-0.000
G1 X124.830 Y76.982 Z0.350 E158.41591 B-0.000
G1 X89.828 Y111.983 Z0.350 E162.92337 B-0.000
G1 X89.828 Y111.098 Z0.350 E163.00396 B-0.000
G1 X123.945 Y76.982 Z0.350 E167.39744 B-0.000
G1 X123.060 Y76.982 Z0.350 E167.47803 B-0.000
G1 X89.828 Y110.213 Z0.350 E171.75755 B-0.000
G1 X89.828 Y109.328 Z0.350 E171.83813 B-0.000
G1 X122.175 Y76.982 Z0.350 E176.00368 B-0.000
G1 X121.290 Y76.982 Z0.350 E176.08427 B-0.000
G1 X89.828 Y108.443 Z0.350 E180.13584 B-0.000
G1 X89.828 Y107.558 Z0.350 E180.21643 B-0.000
G1 X120.405 Y76.982 Z0.350 E184.15404 B-0.000
G1 X119.520 Y76.982 Z0.350 E184.23463 B-0.000
G1 X89.828 Y106.673 Z0.350 E188.05826 B-0.000
G1 X89.828 Y105.788 Z0.350 E188.13885 B-0.000
G1 X118.635 Y76.982 Z0.350 E191.84852 B-0.000
G1 X117.750 Y76.982 Z0.350 E191.92911 B-0.000
G1 X89.828 Y104.903 Z0.350 E195.52480 B-0.000
G1 X89.828 Y104.018 Z0.350 E195.60539 B-0.000
G1 X116.865 Y76.982 Z0.350 E199.08712 B-0.000
G1 X115.980 Y76.982 Z0.350 E199.16770 B-0.000
G1 X89.828 Y103.133 Z0.350 E202.53546 B-0.000
G1 X89.828 Y102.248 Z0.350 E202.61605 B-0.000
G1 X115.095 Y76.982 Z0.350 E205.86983 B-0.000
G1 X114.210 Y76.982 Z0.350 E205.95042 B-0.000
G1 X89.828 Y101.363 Z0.350 E209.09024 B-0.000
G1 X89.828 Y100.478 Z0.350 E209.17083 B-0.000
G1 X113.325 Y76.982 Z0.350 E212.19667 B-0.000
G1 X112.440 Y76.982 Z0.350 E212.27726 B-0.000
G1 X89.828 Y99.593 Z0.350 E215.18914 B-0.000
G1 X89.828 Y98.708 Z0.350 E215.26972 B-0.000
G1 X111.555 Y76.982 Z0.350 E218.06763 B-0.000
G1 X110.670 Y76.982 Z0.350 E218.14822 B-0.000
G1 X89.828 Y97.823 Z0.350 E220.83215 B-0.000
G1 X89.828 Y96.938 Z0.350 E220.91274 B-0.000
G1 X109.785 Y76.982 Z0.350 E223.48271 B-0.000
G1 X108.900 Y76.982 Z0.350 E223.56330 B-0.000
G1 X89.828 Y96.053 Z0.350 E226.01929 B-0.000
G1 X89.828 Y95.168 Z0.350 E226.09988 B-0.000
G1 X108.015 Y76.982 Z0.350 E228.44190 B-0.000
G1 X107.130 Y76.982 Z0.350 E228.52249 B-0.000
G1 X89.828 Y94.283 Z0.350 E230.75055 B-0.000
G1 X89.828 Y93.398 Z0.350 E230.83114 B-0.000
G1 X106.245 Y76.982 Z0.350 E232.94522 B-0.000
G1 X105.360 Y76.982 Z0.350 E233.02581 B-0.000
G1 X89.828 Y92.513 Z0.350 E235.02593 B-0.000
G1 X89.828 Y91.628 Z0.350 E235.10651 B-0.000
G1 X104.475 Y76.982 Z0.350 E236.99266 B-0.000
G1 X103.590 Y76.982 Z0.350 E237.07325 B-0.000
G1 X89.828 Y90.743 Z0.350 E238.84542 B-0.000
G1 X89.828 Y89.858 Z0.350 E238.92601 B-0.000
G1 X102.705 Y76.982 Z0.350 E240.58422 B-0.000
G1 X101.820 Y76.982 Z0.350 E240.66481 B-0.000
G1 X89.828 Y88.973 Z0.350 E242.20904 B-0.000
G1 X89.828 Y88.088 Z0.350 E242.28963 B-0.000
G1 X100.935 Y76.982 Z0.350 E243.71989 B-0.000
G1 X100.050 Y76.982 Z0.350 E243.80048 B-0.000
G1 X89.828 Y87.203 Z0.350 E245.11678 B-0.000
G1 X89.828 Y86.318 Z0.350 E245.19737 B-0.000
G1 X99.165 Y76.982 Z0.350 E246.39969 B-0.000
G1 X98.280 Y76.982 Z0.350 E246.48028 B-0.000
G1 X89.828 Y85.433 Z0.350 E247.56863 B-0.000
G1 X89.828 Y84.548 Z0.350 E247.64922 B-0.000
G1 X97.395 Y76.982 Z0.350 E248.62361 B-0.000
G1 X96.510 Y76.982 Z0.350 E248.70420 B-0.000
G1 X89.828 Y83.663 Z0.350 E249.56461 B-0.000
G1 X89.828 Y82.778 Z0.350 E249.64520 B-0.000
G1 X95.625 Y76.982 Z0.350 E250.39164 B-0.000
G1 X94.740 Y76.982 Z0.350 E250.47223 B-0.000
G1 X89.828 Y81.893 Z0.350 E251.10471 B-0.000
G1 X89.828 Y81.008 Z0.350 E251.18530 B-0.000
G1 X93.855 Y76.982 Z0.350 E251.70380 B-0.000
G1 X92.970 Y76.982 Z0.350 E251.78439 B-0.000
G1 X89.828 Y80.123 Z0.350 E252.18892 B-0.000
G1 X89.828 Y79.238 Z0.350 E252.26951 B-0.000
G1 X92.085 Y76.982 Z0.350 E252.56008 B-0.000
G1 X91.200 Y76.982 Z0.350 E252.64067 B-0.000
G1 X89.828 Y78.353 Z0.350 E252.81726 B-0.000
G1 X89.828 Y77.468 Z0.350 E252.89785 B-0.000
G1 X90.315 Y76.982 Z0.350 E252.96047 B-0.000
G1 Z0.650 F7800.000
G1 X117.340 Y123.964 Z0.650 F7800.000
G1 F3600
G1 X87.647 Y123.964 Z0.650 E254.51180 B-0.000

G1 F3600
G1 X73.327 Y123.964 Z0.650 E255.25995 B-0.000
G1 X73.327 Y76.036 Z0.650 E257.76393 B-0.000
G1 X87.647 Y76.036 Z0.650 E258.51209 B-0.000

G1 F3600
G1 X117.340 Y76.036 Z0.650 E260.06341 B-0.000
G1 X117.340 Y123.904 Z0.650 E262.56426 B-0.000
G1 X117.759 Y124.383 Z0.650 F7800.000
G1 F3600
G1 X87.647 Y124.383 Z0.650 E264.13746 B-0.000

G1 F3600
G1 X72.908 Y124.383 Z0.650 E264.90750 B-0.000
G1 X72.908 Y75.617 Z0.650 E267.45525 B-0.000
G1 X87.647 Y75.617 Z0.650 E268.22529 B-0.000

G1 F3600
G1 X117.759 Y75.617 Z0.650 E269.79849 B-0.000
G1 X117.759 Y124.323 Z0.650 E272.34311 B-0.000
G1 X118.156 Y124.780 Z0.650 F7800.000
G1 F1800
G1 X87.647 Y124.780 Z0.650 E273.77245 B-0.000

G1 F3600
G1 X72.510 Y124.780 Z0.650 E274.56325 B-0.000
G1 X72.510 Y75.220 Z0.650 E277.15251 B-0.000
G1 X87.647 Y75.220 Z0.650 E277.94330 B-0.000

G1 F1800
G1 X118.156 Y75.220 Z0.650 E279.37264 B-0.000
G1 X118.156 Y124.720 Z0.650 E281.69169 B-0.000
G1 X117.779 Y124.647 F7800.000
G1 E279.69169 F1260.00000
G92 E0
G1 X72.044 Y124.780 Z0.650 F7800.000
G1 E2.00000 F1260.00000

G1 F3600
G1 X71.431 Y124.780 Z0.650 E2.03205 B-0.000
G1 X71.431 Y75.220 Z0.650 E4.62131 B-0.000
G1 X72.044 Y75.220 Z0.650 E4.65336 B-0.000
G1 X72.044 Y124.720 Z0.650 E7.23948 B-0.000

G1 X71.737 Y124.581 Z0.650 F7800.000
G1 F1200
G1 X71.737 Y75.419 Z0.650 E8.17034 B-0.000
G1 E6.17034 F1260.00000
G92 E0
G1 X90.861 Y76.471 Z0.650 F7800.000
G1 E2.00000 F1260.00000

G1 F3600
G1 X73.522 Y76.471 Z0.650 E2.91715 B-0.000
G1 X73.522 Y76.923 Z0.650 E2.94109 B-0.000
G1 X90.861 Y76.923 Z0.650 E3.85824 B-0.000
G1 X90.861 Y77.376 Z0.650 E3.88218 B-0.000
G1 X73.522 Y77.376 Z0.650 E4.79933 B-0.000
G1 X73.522 Y77.828 Z0.650 E4.82326 B-0.000
G1 X90.861 Y77.828 Z0.650 E5.74042 B-0.000
G1 X90.861 Y78.281 Z0.650 E5.76435 B-0.000
G1 X73.522 Y78.281 Z0.650 E6.68150 B-0.000
G1 X73.522 Y78.733 Z0.650 E6.70544 B-0.000
G1 X90.861 Y78.733 Z0.650 E7.62259 B-0.000
G1 X90.861 Y79.186 Z0.650 E7.64653 B-0.000
G1 X73.522 Y79.186 Z0.650 E8.56368 B-0.000
G1 X73.522 Y79.638 Z0.650 E8.58761 B-0.000
G1 X90.861 Y79.638 Z0.650 E9.50477 B-0.000
G1 X90.861 Y80.091 Z0.650 E9.52870 B-0.000
G1 X73.522 Y80.091 Z0.650 E10.44585 B-0.000
G1 X73.522 Y80.543 Z0.650 E10.46979 B-0.000
G1 X90.861 Y80.543 Z0.650 E11.38694 B-0.000
G1 X90.861 Y80.996 Z0.650 E11.41088 B-0.000
G1 X73.522 Y80.996 Z0.650 E12.32803 B-0.000
G1 X73.522 Y81.448 Z0.650 E12.35196 B-0.000
G1 X90.861 Y81.448 Z0.650 E13.26912 B-0.000
G1 X90.861 Y81.900 Z0.650 E13.29305 B-0.000
G1 X73.522 Y81.900 Z0.650 E14.21021 B-0.000
G1 X73.522 Y82.353 Z0.650 E14.23414 B-0.000
G1 X90.861 Y82.353 Z0.650 E15.15129 B-0.000
G1 X90.861 Y82.805 Z0.650 E15.17523 B-0.000
G1 X73.522 Y82.805 Z0.650 E16.09238 B-0.000
G1 X73.522 Y83.258 Z0.650 E16.11632 B-0.000
G1 X90.861 Y83.258 Z0.650 E17.03347 B-0.000
G1 X90.861 Y83.710 Z0.650 E17.05740 B-0.000
G1 X73.522 Y83.710 Z0.650 E17.97456 B-0.000
G1 X73.522 Y84.163 Z0.650 E17.99849 B-0.000
G1 X90.861 Y84.163 Z0.650 E18.91564 B-0.000
G1 X90.861 Y84.615 Z0.650 E18.93958 B-0.000
G1 X73.522 Y84.615 Z0.650 E19.85673 B-0.000
G1 X73.522 Y85.068 Z0.650 E19.88067 B-0.000
G1 X90.861 Y85.068 Z0.650 E20.79782 B-0.000
G1 X90.861 Y85.520 Z0.650 E20.82175 B-0.000
G1 X73.522 Y85.520 Z0.650 E21.73891 B-0.000
G1 X73.522 Y85.973 Z0.650 E21.76284 B-0.000
G1 X90.861 Y85.973 Z0.650 E22.67999 B-0.000
G1 X90.861 Y86.425 Z0.650 E22.70393 B-0.000
G1 X73.522 Y86.425 Z0.650 E23.62108 B-0.000
G1 X73.522 Y86.878 Z0.650 E23.64502 B-0.000
G1 X90.861 Y86.878 Z0.650 E24.56217 B-0.000
G1 X90.861 Y87.330 Z0.650 E24.58611 B-0.000
G1 X73.522 Y87.330 Z0.650 E25.50326 B-0.000
G1 X73.522 Y87.783 Z0.650 E25.52719 B-0.000
G1 X90.861 Y87.783 Z0.650 E26.44435 B-0.000
G1 X90.861 Y88.235 Z0.650 E26.46828 B-0.000
G1 X73.522 Y88.235 Z0.650 E27.38543 B-0.000
G1 X73.522 Y88.688 Z0.650 E27.40937 B-0.000
G1 X90.861 Y88.688 Z0.650 E28.32652 B-0.000
G1 X90.861 Y89.140 Z0.650 E28.35046 B-0.000
G1 X73.522 Y89.140 Z0.650 E29.26761 B-0.000
G1 X73.522 Y89.593 Z0.650 E29.29154 B-0.000
G1 X90.861 Y89.593 Z0.650 E30.20870 B-0.000
G1 X90.861 Y90.045 Z0.650 E30.23263 B-0.000
G1 X73.522 Y90.045 Z0.650 E31.14978 B-0.000
G1 X73.522 Y90.498 Z0.650 E31.17372 B-0.000
G1 X90.861 Y90.498 Z0.650 E32.09087 B-0.000
G1 X90.861 Y90.950 Z0.650 E32.11481 B-0.000
G1 X73.522 Y90.950 Z0.650 E33.03196 B-0.000
G1 X73.522 Y91.403 Z0.650 E33.05589 B-0.000
G1 X90.861 Y91.403 Z0.650 E33.97305 B-0.000
G1 X90.861 Y91.855 Z0.650 E33.99698 B-0.000
G1 X73.522 Y91.855 Z0.650 E34.91414 B-0.000
G1 X73.522 Y92.308 Z0.650 E34.93807 B-0.000
G1 X90.861 Y92.308 Z0.650 E35.85522 B-0.000
G1 X90.861 Y92.760 Z0.650 E35.87916 B-0.000
G1 X73.522 Y92.760 Z0.650 E36.79631 B-0.000
G1 X73.522 Y93.213 Z0.650 E36.82025 B-0.000
G1 X90.861 Y93.213 Z0.650 E37.73740 B-0.000
G1 X90.861 Y93.665 Z0.650 E37.76133 B-0.000
G1 X73.522 Y93.665 Z0.650 E38.67849 B-0.000
